svgs/light/square-right.svg

<svg xmlns="http://www.w3.org/2000/svg" viewBox="0 0 448 512"><!-- Font Awesome Pro 6.0.0-alpha2 by @fontawesome - https://fontawesome.com License - https://fontawesome.com/license (Commercial License) --><path d="M448 416V96C448 60.654 419.346 32 384 32H64C28.654 32 0 60.654 0 96V416C0 451.346 28.654 480 64 480H384C419.346 480 448 451.346 448 416ZM64 448C46.355 448 32 433.645 32 416V96C32 78.355 46.355 64 64 64H384C401.645 64 416 78.355 416 96V416C416 433.645 401.645 448 384 448H64ZM356.281 284.281C371.406 269.156 371.609 243.031 356.078 227.531L260.281 135.031C248.797 123.563 231.688 120.156 216.688 126.344C201.688 132.562 192 147.062 192 163.312V192H120C97.938 192 80 209.938 80 232V280C80 302.062 97.938 320 120 320H192V348.688C192 364.938 201.688 379.438 216.688 385.656C231.641 391.844 248.688 388.469 260.172 377.094L356.281 284.281ZM224 348.688V288H120C115.594 288 112 284.406 112 280V232C112 227.594 115.594 224 120 224H224V163.312C224 156.898 232.048 152.057 237.859 157.844L333.656 250.344C337.861 254.505 335.452 259.876 333.859 261.469L237.859 354.156L237.656 354.344C232.806 359.194 224 356.121 224 348.688Z"/></svg>

<svg xmlns="http://www.w3.org/2000/svg" viewBox="0 0 448 512"><!--! Font Awesome Pro 6.3.0 by @fontawesome - https://fontawesome.com License - https://fontawesome.com/license (Commercial License) Copyright 2023 Fonticons, Inc. --><path d="M448 416V96c0-35.35-28.65-64-64-64H64C28.65 32 0 60.65 0 96v320c0 35.35 28.65 64 64 64h320C419.3 480 448 451.3 448 416zM64 448c-17.64 0-32-14.36-32-32V96c0-17.64 14.36-32 32-32h320c17.64 0 32 14.36 32 32v320c0 17.64-14.36 32-32 32H64zM356.3 284.3c15.12-15.12 15.33-41.25-.2031-56.75l-95.8-92.5c-11.48-11.47-28.59-14.88-43.59-8.688C201.7 132.6 192 147.1 192 163.3V192H120C97.94 192 80 209.9 80 232v48C80 302.1 97.94 320 120 320H192v28.69c0 16.25 9.688 30.75 24.69 36.97c14.95 6.188 32 2.812 43.48-8.562L356.3 284.3zM224 348.7V288H120C115.6 288 112 284.4 112 280v-48C112 227.6 115.6 224 120 224H224V163.3c0-6.414 8.048-11.26 13.86-5.471l95.8 92.5c4.205 4.162 1.796 9.532 .2031 11.12l-96 92.69C233 359 224 356.1 224 348.7z"/></svg>
